svgs/hat-steam-among-us-online-game-svgrepo-com.svg

<?xml version="1.0" ?>
<!-- Uploaded to: SVG Repo, www.svgrepo.com, Generator: SVG Repo Mixer Tools -->
<svg fill="#000000" width="800px" height="800px" viewBox="0 0 32 32" version="1.1" xml:space="preserve" xmlns="http://www.w3.org/2000/svg" xmlns:xlink="http://www.w3.org/1999/xlink">
<style type="text/css">
	.st0{display:none;}
</style>
<g class="st0" id="etc"/>
<g id="Hats">
<path d="M18.3682,12H17V9.9743c1.4666-0.0709,3.7736-0.3334,4.707-1.2673C23.9736,6.4404,24,4.0986,24,4c0-0.5522-0.4473-1-1-1   c-0.1318,0-3.2607,0.0127-5.4473,1.1055C16.8648,4.4496,16.3671,4.9606,16,5.5224c-0.3671-0.5618-0.8648-1.0728-1.5527-1.4169   C12.2607,3.0127,9.1318,3,9,3C8.4473,3,8,3.4478,8,4c0,0.0986,0.0264,2.4404,2.293,4.707C11.2264,9.6409,13.5334,9.9034,15,9.9743   V12h-1.3682C9.4238,12,6,15.4233,6,19.6313V29c0,0.5522,0.4473,1,1,1h18c0.5527,0,1-0.4478,1-1v-9.3687   C26,15.4233,22.5762,12,18.3682,12z M18.4473,5.8945c1.0068-0.5034,2.3438-0.7236,3.3076-0.8198   C21.5322,5.6826,21.1055,6.48,20.293,7.293c-0.3008,0.3013-1.6514,0.5732-3.1611,0.6699   C17.2939,7.2231,17.6523,6.292,18.4473,5.8945z M11.707,7.293c-0.8135-0.814-1.2393-1.6118-1.4629-2.2183   c0.9648,0.0962,2.3018,0.3159,3.3086,0.8198c0.7871,0.3931,1.1465,1.3267,1.3105,2.0679   C13.3555,7.8657,12.0078,7.5938,11.707,7.293z M24,28H8v-8.3687C8,16.5264,10.5264,14,13.6318,14h4.7363   C21.4736,14,24,16.5264,24,19.6313V28z M18,16h-4c-2.7568,0-5,2.2432-5,5s2.2432,5,5,5h4c2.7568,0,5-2.2432,5-5S20.7568,16,18,16z    M18,24h-4c-1.6543,0-3-1.3457-3-3s1.3457-3,3-3h4c1.6543,0,3,1.3457,3,3S19.6543,24,18,24z M20,20c0,0.5522-0.4477,1-1,1   s-1-0.4478-1-1c0-0.5523,0.4477-1,1-1S20,19.4477,20,20z M17,20c0,0.5522-0.4473,1-1,1h-2c-0.5527,0-1-0.4478-1-1s0.4473-1,1-1h2   C16.5527,19,17,19.4478,17,20z"/>
</g>
<g id="Crewmates"/>
<g id="ejection"/>
<g id="sabotage"/>
<g id="Die"/>
<g id="Die_2"/>
<g id="ghost"/>
<g id="impostor"/>
<g id="pets"/>
<g id="crewmates"/>
<g id="Guides"/>
</svg>

<?xml version="1.0" encoding="UTF-8" standalone="no"?>
<!-- Uploaded to: SVG Repo, www.svgrepo.com, Generator: SVG Repo Mixer Tools -->

<svg
   fill="#000000"
   width="800px"
   height="800px"
   viewBox="0 0 32 32"
   version="1.1"
   xml:space="preserve"
   id="svg1"
   sodipodi:docname="hat-steam-among-us-online-game-svgrepo-com.svg"
   inkscape:version="1.4.2 (ebf0e940, 2025-05-08)"
   xmlns:inkscape="http://www.inkscape.org/namespaces/inkscape"
   xmlns:sodipodi="http://sodipodi.sourceforge.net/DTD/sodipodi-0.dtd"
   xmlns="http://www.w3.org/2000/svg"
   xmlns:svg="http://www.w3.org/2000/svg"><defs
   id="defs1" /><sodipodi:namedview
   id="namedview1"
   pagecolor="#ffffff"
   bordercolor="#000000"
   borderopacity="0.25"
   inkscape:showpageshadow="2"
   inkscape:pageopacity="0.0"
   inkscape:pagecheckerboard="0"
   inkscape:deskcolor="#d1d1d1"
   inkscape:zoom="1.21"
   inkscape:cx="564.46281"
   inkscape:cy="398.34711"
   inkscape:window-width="2560"
   inkscape:window-height="1381"
   inkscape:window-x="2560"
   inkscape:window-y="31"
   inkscape:window-maximized="1"
   inkscape:current-layer="svg1" />

<style
   type="text/css"
   id="style1">
	.st0{display:none;}
</style>

<g
   class="st0"
   id="etc" />

<g
   id="Hats"
   transform="matrix(0.89035813,0,0,0.89035813,1.7487604,-1.753719)">

<path
   d="M 18.3682,12 H 17 V 9.9743 C 18.4666,9.9034 20.7736,9.6409 21.707,8.707 23.9736,6.4404 24,4.0986 24,4 24,3.4478 23.5527,3 23,3 22.8682,3 19.7393,3.0127 17.5527,4.1055 16.8648,4.4496 16.3671,4.9606 16,5.5224 15.6329,4.9606 15.1352,4.4496 14.4473,4.1055 12.2607,3.0127 9.1318,3 9,3 8.4473,3 8,3.4478 8,4 8,4.0986 8.0264,6.4404 10.293,8.707 11.2264,9.6409 13.5334,9.9034 15,9.9743 V 12 H 13.6318 C 9.4238,12 6,15.4233 6,19.6313 V 29 c 0,0.5522 0.4473,1 1,1 h 18 c 0.5527,0 1,-0.4478 1,-1 V 19.6313 C 26,15.4233 22.5762,12 18.3682,12 Z M 18.4473,5.8945 C 19.4541,5.3911 20.7911,5.1709 21.7549,5.0747 21.5322,5.6826 21.1055,6.48 20.293,7.293 19.9922,7.5943 18.6416,7.8662 17.1319,7.9629 17.2939,7.2231 17.6523,6.292 18.4473,5.8945 Z M 11.707,7.293 C 10.8935,6.479 10.4677,5.6812 10.2441,5.0747 c 0.9648,0.0962 2.3018,0.3159 3.3086,0.8198 0.7871,0.3931 1.1465,1.3267 1.3105,2.0679 C 13.3555,7.8657 12.0078,7.5938 11.707,7.293 Z M 24,28 H 8 V 19.6313 C 8,16.5264 10.5264,14 13.6318,14 h 4.7363 C 21.4736,14 24,16.5264 24,19.6313 Z M 18,16 h -4 c -2.7568,0 -5,2.2432 -5,5 0,2.7568 2.2432,5 5,5 h 4 c 2.7568,0 5,-2.2432 5,-5 0,-2.7568 -2.2432,-5 -5,-5 z m 0,8 h -4 c -1.6543,0 -3,-1.3457 -3,-3 0,-1.6543 1.3457,-3 3,-3 h 4 c 1.6543,0 3,1.3457 3,3 0,1.6543 -1.3457,3 -3,3 z m 2,-4 c 0,0.5522 -0.4477,1 -1,1 -0.5523,0 -1,-0.4478 -1,-1 0,-0.5523 0.4477,-1 1,-1 0.5523,0 1,0.4477 1,1 z m -3,0 c 0,0.5522 -0.4473,1 -1,1 h -2 c -0.5527,0 -1,-0.4478 -1,-1 0,-0.5522 0.4473,-1 1,-1 h 2 c 0.5527,0 1,0.4478 1,1 z"
   id="path1" />

</g>

<g
   id="Crewmates" />

<g
   id="ejection" />

<g
   id="sabotage" />

<g
   id="Die" />

<g
   id="Die_2" />

<g
   id="ghost" />

<g
   id="impostor" />

<g
   id="pets" />

<g
   id="crewmates" />

<g
   id="Guides" />

<text
   xml:space="preserve"
   style="font-size:5.07945px;font-family:Silom;-inkscape-font-specification:'Silom, Normal';text-align:start;writing-mode:lr-tb;direction:ltr;text-anchor:start;fill:#000000;stroke-width:0.0264555"
   x="0.71170902"
   y="30.049587"
   id="text1"><tspan
     sodipodi:role="line"
     id="tspan1"
     style="stroke-width:0.0264555"
     x="0.71170902"
     y="30.049587">AUTO CHECK</tspan></text></svg>
